X: 25091
T: Maids Of Palmyra, The
R: jig
M: 6/8
K: Dmajor
|:FAA FAA|BAF AFE|FAA ABA|FEE EDE|
FAA FAA|BAF ABc|dcd dAF|1 EDD D2 E:|2 EDD D2 e||
|:f2 f fed|BAF AFA|Bee Bee|fed ede|
faf fed|BAF ABc|dcd dAF|1 EDD D2 e:|2 EDD D2 E||

